X: 121758
T: Lackey's
T: R\'il Leaic\'i
S: B.Breathnach:"Ceol Rince na hEireann" IV/144 
Z: B.Black
L: 1/8
M: 4/4
R: reel
K: G
gfed Bd d2|gfed ea a2|gfed BddB|cBAG EG G2 :|
G2 BG dBGB|G2 BG EA A2|G2 BG dGBG|cBAG EG G2 :|
